outputs/icons/charts/chart_line_stacked_round.svg

<svg xmlns="http://www.w3.org/2000/svg" width="1200" height="1200" fill="none"><path fill="#000" d="M137.472 1036.96c-20.7-20.7-20.71-54.255-.025-74.97l302.197-302.6c19.523-19.55 51.2-19.56 70.736-.025L675 823.99l319.43-359.078c19.03-21.391 52.135-22.358 72.38-2.113 18.635 18.636 19.515 48.571 2 68.266l-358.58 403.3c-19.115 21.495-52.38 22.475-72.72 2.13L475 773.99l-262.503 262.94c-20.704 20.735-54.304 20.75-75.025.03m0-300c20.721 20.72 54.321 20.705 75.025-.03L475 473.988l162.51 162.507c20.34 20.345 53.605 19.365 72.72-2.13l358.58-403.3c17.515-19.696 16.635-49.63-2-68.266-20.245-20.244-53.35-19.278-72.38 2.113L675 523.99 510.38 359.367c-19.536-19.535-51.213-19.524-70.736.023l-302.197 302.6c-20.685 20.715-20.675 54.27.025 74.97"/></svg>

<svg width="1200" height="1200" viewBox="0 0 1200 1200" fill="none" xmlns="http://www.w3.org/2000/svg"><path d="M137.472 1036.96C116.772 1016.26 116.762 982.705 137.447 961.99L439.644 659.39C459.167 639.84 490.844 639.83 510.38 659.365L675 823.99L994.43 464.912C1013.46 443.521 1046.565 442.554 1066.81 462.799C1085.445 481.435 1086.325 511.37 1068.81 531.065L710.23 934.365C691.115 955.86 657.85 956.84 637.51 936.495L475 773.99L212.497 1036.93C191.793 1057.665 158.193 1057.68 137.472 1036.96ZM137.472 736.96C158.193 757.68 191.793 757.665 212.497 736.93L475 473.988L637.51 636.495C657.85 656.84 691.115 655.86 710.23 634.365L1068.81 231.065C1086.325 211.369 1085.445 181.435 1066.81 162.799C1046.565 142.555 1013.46 143.521 994.43 164.912L675 523.99L510.38 359.367C490.844 339.832 459.167 339.843 439.644 359.39L137.447 661.99C116.762 682.705 116.772 716.26 137.472 736.96Z" fill="black"/></svg>
